<?xml version="1.0" encoding="UTF-8"?>
<map version="1.10" tiledversion="1.12.1" orientation="orthogonal" renderorder="right-down" width="32" height="35" tilewidth="64" tileheight="64" infinite="0" nextlayerid="7" nextobjectid="399">
 <properties>
  <property name="symbol" value="string"/>
 </properties>
 <tileset firstgid="1" source="../graphics/tilesets/2D_Road_Tileset Pack_(Top-Down).tsx"/>
 <tileset firstgid="1486" source="../graphics/objects/Objects.tsx"/>
 <tileset firstgid="1486" source="../graphics/objects/Buildings.tsx"/>
 <layer id="1" name="Ground" width="32" height="35" locked="1">
  <data encoding="csv">
369,369,369,369,369,369,369,369,369,369,369,369,369,369,369,369,369,369,369,369,369,369,369,369,369,369,369,369,369,369,369,369,
369,369,369,369,369,369,369,369,369,369,369,369,369,369,369,369,369,369,369,369,369,369,369,369,369,369,369,369,369,369,369,369,
369,369,369,369,369,369,369,369,369,369,369,369,369,369,369,369,369,369,369,369,369,369,369,369,369,369,369,369,369,369,369,369,
369,369,369,369,369,369,369,369,369,369,369,369,369,369,369,369,369,369,369,369,369,369,369,369,369,369,369,369,369,369,369,369,
369,369,369,369,369,369,369,369,369,369,369,369,369,369,369,369,369,1090,1135,1137,369,369,369,369,369,369,369,369,369,369,369,369,
369,369,369,369,369,369,369,369,369,369,369,369,369,369,369,369,369,1090,1090,1227,369,369,369,369,369,369,369,369,369,369,369,369,
369,369,369,369,369,369,369,369,369,369,369,369,369,369,369,369,369,1090,1090,1227,1319,369,369,369,369,369,369,369,369,369,369,369,
369,369,369,369,369,369,369,369,369,369,369,369,369,369,369,369,369,1090,1090,1227,1319,1141,1142,1142,369,369,369,369,369,369,369,369,
369,369,369,369,369,369,369,369,369,369,369,369,369,369,369,369,369,1090,1227,1227,954,1276,369,369,369,369,369,369,369,369,369,369,
369,369,369,369,369,369,369,369,369,369,369,369,369,369,369,369,369,369,369,1227,954,1276,369,369,369,369,369,369,369,369,369,369,
369,369,369,369,369,369,369,369,369,369,369,369,369,369,369,369,369,369,369,1227,1319,1276,369,369,369,369,369,369,369,369,369,369,
369,369,369,369,369,369,369,369,369,369,369,369,369,369,369,369,369,369,369,1227,1319,1276,369,369,369,369,369,369,369,369,369,369,
369,369,369,369,369,369,369,369,369,369,369,1048,1048,1048,1048,1048,1048,1048,1048,1227,1274,867,369,369,369,369,369,369,369,369,369,369,
369,369,369,369,369,369,369,369,369,369,369,369,912,369,369,369,369,369,1048,908,1274,867,369,369,369,369,369,369,369,369,369,369,
369,369,369,369,369,369,369,369,369,369,1097,1097,957,949,949,949,947,947,947,953,1046,957,959,959,959,959,959,951,951,951,953,369,
369,369,369,369,369,369,369,369,369,369,369,369,369,1041,1041,1041,1041,1041,1041,1097,1097,1097,1041,1041,1041,1041,1041,1097,1097,1041,1041,1041,
369,369,369,369,369,369,369,369,369,369,369,369,369,369,369,369,333,555,1135,1137,1046,1097,1129,1129,1129,1129,1129,1097,1097,1097,1097,1097,
369,369,369,459,369,460,460,460,460,460,460,369,369,369,369,369,369,1088,1091,1182,1046,1097,1097,1097,1097,1097,1097,1097,1097,1097,1097,1097,
369,369,369,908,369,912,1097,1000,369,369,369,369,369,369,369,1025,369,1088,1091,1091,1046,1097,1141,1142,1142,1142,1142,1142,1142,1142,1142,1142,
369,369,369,908,865,912,1097,1000,369,369,369,369,369,1025,1025,1025,1047,1088,1088,1097,1097,1097,1097,1097,1097,1097,1097,1097,1097,1097,1097,1097,
369,369,369,908,865,912,1097,999,369,369,369,369,369,1025,1047,1047,1097,1097,1000,1097,1097,1097,1097,1097,1097,1097,1097,1097,1097,1097,1097,1097,
369,369,369,908,865,912,1097,999,369,369,369,369,369,1047,1097,1097,1097,1097,1000,1097,1097,1097,1097,1097,1097,1097,1097,1097,1097,1097,1097,1097,
369,369,369,908,865,912,1097,999,369,369,369,1047,1047,1097,1097,1097,1097,1097,1097,1097,1097,1097,1097,1097,1097,1097,1097,1097,1097,1097,1097,1097,
369,369,369,908,865,912,1097,999,369,369,1047,1047,1097,1097,1097,1097,1097,1097,1097,1097,1097,1097,1097,1097,1097,1097,1097,1097,1097,1097,1097,1097,
951,951,952,953,1097,957,1097,999,369,1047,1047,1097,1097,1097,1097,1097,1097,1097,1097,1097,1097,1097,1097,1097,1097,1097,1097,1097,1097,1097,1097,1097,
1037,1037,1037,1097,1097,1097,1097,1097,1025,1025,1097,1097,1097,1097,1097,1097,1097,1097,1097,1097,1097,1097,1097,1097,1097,1097,1097,1097,1097,1097,1097,1097,
1133,1135,1133,1001,1001,1097,1097,1047,1047,1097,1097,1097,1097,1097,1097,1097,1097,1097,1097,1097,1097,1097,1097,1097,1097,1097,1097,1097,1097,1097,1097,1097,
1097,1097,1097,1097,1097,1097,1097,1097,1097,1097,1097,1097,1097,1097,1097,1097,1097,1097,1097,1097,1097,1097,1097,1097,1097,1097,1097,1097,1097,1097,1097,1097,
1097,1097,1097,1097,1097,1097,1097,1097,1097,1097,1097,1097,1097,1097,1097,1097,1097,1097,1097,1097,1097,1097,1097,1097,1097,1097,1097,1097,1097,1097,1097,1097,
1097,1097,1097,1097,1097,1097,1097,1097,1097,1097,1097,1097,1097,1097,1097,1097,1097,1097,1097,1097,1097,1097,1097,1097,1097,1097,1097,1097,1097,1097,1097,1097,
1097,1097,1097,1097,1097,1097,1097,1097,1097,1097,1097,1097,1097,1097,1097,1097,1097,1097,1097,1097,1097,1097,1097,1097,1097,1097,1097,1097,1097,1097,1097,1097,
1097,1097,1097,1097,1097,1097,1097,1097,1097,1097,1097,1097,1097,1097,1097,1097,1097,1097,1097,1097,1097,1097,1097,1097,1097,1097,1097,1097,1097,1097,1097,1097,
1097,1097,1097,1097,1097,1097,1097,1097,1097,1097,1097,1097,1097,1097,1097,1097,1097,1097,1097,1097,1097,1097,1097,1097,1097,1097,1097,1097,1097,1097,1097,1097,
1097,1097,1097,1097,1097,1097,1097,1097,1097,1097,1097,1097,1097,1097,1097,1097,1097,1097,1097,1097,1097,1097,1097,1097,1097,1097,1097,1097,1097,1097,1097,1097,
1097,1097,1097,1097,1097,1097,1097,1097,1097,1097,1097,1097,1097,1097,1097,1097,1097,1097,1097,1097,1097,1097,1097,1097,1097,1097,1097,1097,1097,1097,1097,1097
</data>
 </layer>
 <objectgroup id="2" name="Entities">
  <object id="139" name="Enemy" x="1121.82" y="270.303">
   <point/>
  </object>
  <object id="140" name="Player" x="1542.73" y="1964.55">
   <point/>
  </object>
  <object id="386" name="Nodes" x="1701.33" y="1486.06">
   <properties>
    <property name="node_type" value="liquidity"/>
    <property name="symbol" value="TSLA"/>
   </properties>
   <point/>
  </object>
  <object id="387" name="Nodes" x="130.303" y="2124.25">
   <properties>
    <property name="node_type" value="darkpool"/>
    <property name="symbol" value="GME"/>
   </properties>
   <point/>
  </object>
  <object id="388" name="Nodes" x="1690.13" y="614.302">
   <properties>
    <property name="node_type" value="risk"/>
    <property name="symbol" value="AAPL"/>
   </properties>
   <point/>
  </object>
  <object id="389" name="Nodes" x="196.727" y="1162.42">
   <properties>
    <property name="node_type" value="momentum"/>
    <property name="symbol" value="NVDA"/>
   </properties>
   <point/>
  </object>
  <object id="392" name="Enemy" x="262" y="1624">
   <point/>
  </object>
  <object id="393" name="Enemy" x="730" y="1678">
   <point/>
  </object>
  <object id="394" name="Enemy" x="1200" y="1356">
   <point/>
  </object>
  <object id="395" name="Enemy" x="1454" y="1022">
   <point/>
  </object>
  <object id="396" name="Enemy" x="456" y="1132">
   <point/>
  </object>
  <object id="397" name="Enemy" x="734" y="1024">
   <point/>
  </object>
  <object id="398" name="Nasdaqnode" x="398.727" y="520.545" width="174.019" height="41.5744" rotation="-30"/>
 </objectgroup>
 <objectgroup id="3" name="Collisions">
  <object id="293" x="-563.636" y="1121.21" width="3.0303" height="3.0303"/>
  <object id="302" x="1206.06" y="1654.55" width="201.82" height="27.2727" rotation="25"/>
  <object id="309" x="-24.4848" y="1872.61" width="324.904" height="54.5455" rotation="29"/>
  <object id="310" x="614.606" y="2089.15" width="100.157" height="54.5455" rotation="347"/>
  <object id="328" x="300.215" y="2015.39" width="146.08" height="54.5455" rotation="29"/>
  <object id="329" x="502.588" y="2082.06" width="100.157" height="54.5455" rotation="347"/>
  <object id="330" x="436.588" y="2062.73" width="100.157" height="54.5455" rotation="-347"/>
  <object id="331" x="573.921" y="2074.73" width="100.157" height="54.5455" rotation="-347"/>
  <object id="332" x="698" y="2088.67" width="34.6667" height="48"/>
  <object id="342" x="12.5488" y="1484" width="81.1066" height="18.6667" rotation="30"/>
  <object id="343" x="76.5774" y="1529.33" width="86.8453" height="18.6667" rotation="-30"/>
  <object id="344" x="137.333" y="1285.33" width="21.3333" height="214.667"/>
  <object id="373" x="4" y="1506.67" width="4" height="213.333"/>
  <object id="375" x="1167.33" y="127.333" width="129.177" height="17.3333" rotation="30"/>
  <object id="376" x="1294" y="196.667" width="97.3333" height="17.3333" rotation="30"/>
  <object id="377" x="1403.33" y="236.667" width="97.3333" height="17.3333" rotation="30"/>
  <object id="378" x="1487.33" y="286" width="511.565" height="17.3333" rotation="30"/>
  <object id="379" x="2.66667" y="1941.33" width="5.33333" height="297.333"/>
  <object id="380" x="10.6667" y="2226.67" width="2038.67" height="6.66667"/>
 </objectgroup>
 <objectgroup id="4" name="Objects">
  <object id="148" gid="1502" x="1539.2" y="1444.37" width="394.303" height="539.515"/>
  <object id="150" gid="1491" x="1493.33" y="1955.33" width="400" height="400"/>
  <object id="151" gid="1491" x="1408" y="1912.67" width="400" height="400"/>
  <object id="152" gid="1496" x="6.7273" y="-434.121" width="165.636" height="250.545"/>
  <object id="163" gid="1487" x="286" y="450" width="400" height="400"/>
  <object id="164" gid="1494" x="400" y="428" width="400" height="400"/>
  <object id="165" gid="1494" x="520" y="372" width="400" height="400"/>
  <object id="166" gid="1492" x="620" y="312" width="400" height="400"/>
  <object id="167" gid="1489" x="712" y="286" width="400" height="400"/>
  <object id="168" gid="1489" x="776" y="243.333" width="400" height="400"/>
  <object id="169" gid="1490" x="894" y="238.667" width="400" height="400"/>
  <object id="170" gid="2147485142" x="1047" y="260" width="400" height="400"/>
  <object id="171" gid="1487" x="1182.67" y="293.333" width="368" height="366.667"/>
  <object id="172" gid="1487" x="1288.67" y="327.333" width="345.333" height="365.333"/>
  <object id="173" gid="1487" x="1377" y="384.333" width="352" height="366.667"/>
  <object id="174" gid="1486" x="1481.33" y="449" width="320" height="370.667"/>
  <object id="175" gid="1489" x="1502" y="512.667" width="400" height="400"/>
  <object id="176" gid="1489" x="1545.33" y="538" width="400" height="400"/>
  <object id="177" gid="1489" x="1603.33" y="570.667" width="400" height="400"/>
  <object id="178" gid="1495" x="1694.67" y="581.333" width="400" height="400"/>
  <object id="179" gid="1486" x="1818" y="625.333" width="334.667" height="356"/>
  <object id="180" gid="1487" x="1843.33" y="744.667" width="400" height="400"/>
  <object id="181" gid="1486" x="1730" y="874" width="400" height="400"/>
  <object id="184" gid="1493" x="1492.24" y="985.152" width="400" height="400"/>
  <object id="185" gid="2147485142" x="1364" y="912" width="400" height="400"/>
  <object id="186" gid="1489" x="1298" y="882" width="400" height="400"/>
  <object id="187" gid="1489" x="1278" y="754" width="400" height="400"/>
  <object id="188" gid="1489" x="1320" y="822" width="400" height="400"/>
  <object id="189" gid="1489" x="734" y="978" width="400" height="400"/>
  <object id="190" gid="1489" x="826" y="968" width="400" height="400"/>
  <object id="192" gid="1495" x="918" y="850" width="344" height="360"/>
  <object id="196" gid="1487" x="958" y="620" width="340" height="380"/>
  <object id="197" gid="1489" x="894" y="684" width="400" height="400"/>
  <object id="200" gid="1491" x="34" y="740.667" width="400" height="400"/>
  <object id="202" gid="1490" x="162" y="802" width="400" height="400"/>
  <object id="203" gid="1493" x="162" y="838" width="400" height="400"/>
  <object id="204" gid="1486" x="50" y="872" width="400" height="400"/>
  <object id="205" gid="2147485140" x="2" y="996" width="400" height="400"/>
  <object id="206" gid="1490" x="-52" y="1054" width="400" height="400"/>
  <object id="207" gid="1490" x="-78" y="1106" width="400" height="400"/>
  <object id="208" gid="1495" x="-126" y="1130" width="400" height="400"/>
  <object id="209" gid="1495" x="-132" y="1212" width="400" height="400"/>
  <object id="210" gid="1495" x="-132" y="1296" width="400" height="382"/>
  <object id="211" gid="1495" x="-130" y="1392" width="400" height="400"/>
  <object id="212" gid="1487" x="-122" y="1578" width="400" height="400"/>
  <object id="220" gid="1495" x="751.091" y="1390.24" width="308" height="330"/>
  <object id="221" gid="1495" x="843.951" y="1325.36" width="275.879" height="290.727"/>
  <object id="222" gid="1486" x="883.697" y="1255.76" width="306" height="284"/>
  <object id="224" gid="1489" x="502.182" y="1512.91" width="400" height="400"/>
  <object id="225" gid="1486" x="596" y="1400" width="362" height="338"/>
  <object id="229" gid="1495" x="633.515" y="1462.61" width="376" height="360"/>
  <object id="230" gid="1486" x="1308" y="1852" width="400" height="400"/>
  <object id="231" gid="1487" x="1168" y="1796" width="400" height="400"/>
  <object id="235" gid="1491" x="1078" y="1792" width="400" height="400"/>
  <object id="237" gid="1491" x="1136" y="1742" width="400" height="400"/>
  <object id="238" gid="1486" x="1198" y="1666" width="400" height="400"/>
  <object id="239" gid="1487" x="1248" y="1592" width="400" height="400"/>
  <object id="240" gid="1486" x="1304" y="1580" width="400" height="400"/>
  <object id="241" gid="1495" x="1354" y="1450" width="357.576" height="290.909"/>
  <object id="242" gid="1487" x="1400" y="1392" width="315.152" height="260.606"/>
  <object id="243" gid="1486" x="-157.03" y="2024.12" width="400" height="400"/>
  <object id="244" gid="1488" x="-64.1818" y="2093.27" width="400" height="400"/>
  <object id="245" gid="1492" x="40.7273" y="2130.97" width="400" height="400"/>
  <object id="246" gid="1489" x="132.909" y="2191.39" width="400" height="400"/>
  <object id="247" gid="1489" x="207.818" y="2217.15" width="400" height="400"/>
  <object id="248" gid="1487" x="317.515" y="2179.09" width="400" height="400"/>
  <object id="249" gid="1487" x="452.788" y="2188.12" width="400" height="400"/>
  <object id="294" gid="1495" x="1706.06" y="933.333" width="336.364" height="348.485"/>
  <object id="295" gid="1487" x="1602.06" y="935.091" width="333.334" height="348.484"/>
 </objectgroup>
</map>
